X: 9847
T: Deóra Dé
R: slip jig
M: 9/8
K: Fmajor
M:7/8
K:Bbdor
|:f2 B2 cBA|B2 F2 AFE|f2 B2 cBA|B/c/d ef bba|
f2 B2 cBA|B2 F2 AFE|F/G/A Bc ddf|ec Ac B3:|
|:b2 f2 a2c'|b2 f2 d'2c'|a2 e2 d2e|c2 e2 a2c'|
b2 f2 a2c'|b2 c'2 d'2f'|1 e'd' c'b2 a2|e'd' c'b2 a2:|2 e'd' c'b2 b2|b2 e'd' c'b2||

